svg/tangram.svg

<svg xmlns="http://www.w3.org/2000/svg" viewBox="0 0 24 24"><path d="M20 2H4c-1.1 0-2 .9-2 2v16c0 1.1.9 2 2 2h16c1.1 0 2-.9 2-2V4c0-1.1-.9-2-2-2m-1.41 2L12 10.59 5.41 4zm-5.18 8 3.09-3.09L19.59 12l-3.09 3.09zm1.18 4H9.41L12 13.41zM4 5.41 10.59 12 4 18.59zM11.59 20H5.41l2-2h6.18zM20 20h-5.59L20 14.41zm0-10.41L17.91 7.5 20 5.41z"/></svg>

<svg xmlns="http://www.w3.org/2000/svg" id="mdi-tangram" viewBox="0 0 24 24"><path d="M20 2H4C2.9 2 2 2.9 2 4V20C2 21.1 2.9 22 4 22H20C21.1 22 22 21.1 22 20V4C22 2.9 21.1 2 20 2M18.59 4L12 10.59L5.41 4H18.59M13.41 12L16.5 8.91L19.59 12L16.5 15.09L13.41 12M14.59 16H9.41L12 13.41L14.59 16M4 5.41L10.59 12L4 18.59V5.41M11.59 20H5.41L7.41 18H13.59L11.59 20M20 20H14.41L20 14.41V20M20 9.59L17.91 7.5L20 5.41V9.59Z" /></svg>
